;FLAVOR:Marlin
;TIME:16034
;Filament used: 9.2859m
;Layer height: 0.12
;MINX:0
;MINY:0
;MINZ:0.12
;MAXX:161.701
;MAXY:209.605
;MAXZ:19.76
;TARGET_MACHINE.NAME:Creality Ender-3 V3 SE
;Generated with Cura_SteamEngine 5.12.1
M220 S100 ;Reset Feedrate
M221 S100 ;Reset Flowrate

G28 ;Home

M420 S1; Use saved mesh leveling data

G92 E0 ;Reset Extruder
G1 Z2.0 F3000 ;Move Z Axis up
G1 X-3 Y20 Z0.28 F5000.0 ;Move to start position
M190 S60 ; Set bed temperature and wait
M109 S200.0 ; Set hotend temperature and wait
G1 X-3 Y100.0 Z0.28 F1500.0 E15 ;Draw the first line
G1 X-2 Y100.0 Z0.28 F5000.0 ;Move to side a little
G1 X-2 Y20 Z0.28 F1500.0 E30 ;Draw the second line
G92 E0 ;Reset Extruder
G1 E-1.0000 F1800 ;Retract a bit
G1 Z2.0 F3000 ;Move Z Axis up
G1 E0.0000 F1800 

M82 ;absolute extrusion mode
G92 E0
G92 E0
G1 F2400 E-2
;LAYER_COUNT:163
;LAYER:0
M107
G1 F300 Z0.32
G0 F9000 X73.207 Y16.106
;TYPE:SKIRT
G1 F300 Z0.12
G1 F2400 E0
G1 F1800 X73.5 Y15.193 E0.01914
G1 X73.704 Y14.679 E0.03017
G1 X73.954 Y14.098 E0.04279
G1 X74.374 Y13.234 E0.06196
G1 X75.011 Y12.192 E0.08634
G1 X75.428 Y11.618 E0.1005
G1 X75.636 Y11.349 E0.10728
G1 X76.065 Y10.829 E0.12073
G1 X76.557 Y10.301 E0.13514
G1 X77.036 Y9.847 E0.14831
G1 X77.689 Y9.288 E0.16546
G1 X78.434 Y8.722 E0.18413
G1 X79.181 Y8.245 E0.20182
G1 X79.609 Y8.002 E0.21164
G1 X80.228 Y7.68 E0.22556
G1 X81.114 Y7.278 E0.24498
G1 X82.001 Y6.964 E0.26376
G1 X83.153 Y6.677 E0.28745
G1 X84.041 Y6.516 E0.30546
G1 X85.045 Y6.4 E0.32563
G1 X85.632 Y6.375 E0.33735
G1 X86.447 Y6.362 E0.35362
G1 X147.791 Y6.36 E1.57781
G1 X148.659 Y6.371 E1.59513
G1 X149.133 Y6.388 E1.60459
G1 X149.961 Y6.456 E1.62117
G1 X150.925 Y6.599 E1.64062
G1 X151.999 Y6.855 E1.66266
G1 X152.802 Y7.098 E1.6794
G1 X153.47 Y7.347 E1.69362
G1 X154.076 Y7.613 E1.70683
G1 X154.465 Y7.803 E1.71547
G1 X155.311 Y8.277 E1.73482
G1 X155.895 Y8.654 E1.7487
G1 X156.484 Y9.064 E1.76302
G1 X157.264 Y9.689 E1.78296
G1 X157.962 Y10.358 E1.80226
G1 X158.474 Y10.932 E1.81761
G1 X158.938 Y11.516 E1.83249
G1 X159.203 Y11.872 E1.84135
G1 X159.867 Y12.877 E1.86539
G1 X160.257 Y13.591 E1.88162
G1 X160.79 Y14.793 E1.90786
G1 X161.109 Y15.724 E1.9275
G1 X161.353 Y16.604 E1.94573
G1 X161.448 Y17.053 E1.95488
G1 X161.567 Y17.748 E1.96896
G1 X161.623 Y18.175 E1.97755
G1 X161.663 Y18.848 E1.991
G1 X161.684 Y19.002 E1.99411
G1 X161.701 Y19.871 E2.01145
G1 X161.7 Y196.005 E5.52639
G1 X161.678 Y197.063 E5.54751
G1 X161.593 Y198.013 E5.56655
G1 X161.462 Y198.856 E5.58357
G1 X161.322 Y199.54 E5.5975
G1 X161.057 Y200.471 E5.61682
G1 X160.773 Y201.23 E5.63299
G1 X160.502 Y201.85 E5.6465
G1 X160.324 Y202.226 E5.6548
G1 X159.866 Y203.09 E5.67431
G1 X159.401 Y203.815 E5.6915
G1 X158.805 Y204.618 E5.71146
G1 X158.15 Y205.389 E5.73165
G1 X157.548 Y205.99 E5.74862
G1 X157.031 Y206.449 E5.76242
G1 X156.658 Y206.758 E5.77209
G1 X155.708 Y207.463 E5.79569
G1 X154.874 Y207.963 E5.8151
G1 X154.033 Y208.375 E5.83379
G1 X153.434 Y208.626 E5.84675
G1 X152.768 Y208.88 E5.86097
G1 X151.904 Y209.147 E5.87902
G1 X151.399 Y209.269 E5.88939
G1 X150.678 Y209.406 E5.90403
G1 X149.856 Y209.53 E5.92062
G1 X148.849 Y209.591 E5.94076
G1 X147.967 Y209.602 E5.95836
G1 X86.49 Y209.605 E7.1852
G1 X85.678 Y209.593 E7.2014
G1 X84.746 Y209.538 E7.22004
G1 X84.099 Y209.453 E7.23306
G1 X83.443 Y209.345 E7.24633
G1 X82.492 Y209.143 E7.26573
G1 X81.628 Y208.881 E7.28374
G1 X80.445 Y208.383 E7.30936
G1 X79.852 Y208.09 E7.32256
G1 X79.471 Y207.883 E7.33121
G1 X78.592 Y207.351 E7.35172
G1 X77.918 Y206.861 E7.36834
G1 X77.174 Y206.242 E7.38766
G1 X76.727 Y205.834 E7.39974
G1 X75.919 Y204.966 E7.4234
G1 X75.427 Y204.346 E7.4392
G1 X75.036 Y203.81 E7.45244
G1 X74.502 Y202.961 E7.47245
G1 X73.975 Y201.925 E7.49565
G1 X73.798 Y201.532 E7.50425
G1 X73.437 Y200.626 E7.52371
G1 X73.157 Y199.686 E7.54329
G1 X72.93 Y198.518 E7.56703
G1 X72.829 Y197.748 E7.58253
G1 X72.759 Y196.679 E7.60391
G1 X72.744 Y195.752 E7.62241
G1 X72.741 Y20.105 E11.12763
G1 X72.766 Y18.848 E11.15272
G1 X72.836 Y18.04 E11.16891
G1 X72.987 Y17.081 E11.18828
G1 X73.207 Y16.106 E11.20823
G0 F9000 X73.588 Y16.228
G1 F1800 X73.872 Y15.341 E11.22682
G1 X74.072 Y14.837 E11.23764
G1 X74.314 Y14.273 E11.24988
G1 X74.734 Y13.409 E11.26905
G1 X75.335 Y12.427 E11.29203
G1 X75.744 Y11.863 E11.30593
G1 X75.945 Y11.603 E11.31249
G1 X76.358 Y11.102 E11.32545
G1 X76.85 Y10.574 E11.33985
G1 X77.296 Y10.151 E11.35212
G1 X77.931 Y9.607 E11.3688
G1 X78.676 Y9.041 E11.38748
G1 X79.379 Y8.593 E11.40411
G1 X79.794 Y8.357 E11.41364
G1 X80.394 Y8.044 E11.42714
G1 X81.248 Y7.655 E11.44587
G1 X82.098 Y7.352 E11.46388
G1 X83.224 Y7.071 E11.48704
G1 X84.112 Y6.91 E11.50505
G1 X85.062 Y6.8 E11.52413
G1 X85.638 Y6.775 E11.53564
G1 X86.447 Y6.762 E11.55179
G1 X147.786 Y6.76 E12.77587
G1 X148.645 Y6.771 E12.79302
G1 X149.101 Y6.787 E12.80212
G1 X149.903 Y6.852 E12.81818
G1 X150.832 Y6.988 E12.83692
G1 X151.883 Y7.238 E12.85847
G1 X152.662 Y7.473 E12.87471
G1 X153.33 Y7.722 E12.88894
G1 X153.901 Y7.973 E12.90139
G1 X154.269 Y8.152 E12.90955
G1 X155.115 Y8.626 E12.9289
G1 X155.666 Y8.982 E12.942
G1 X156.255 Y9.392 E12.95632
G1 X156.988 Y9.978 E12.97505
G1 X157.664 Y10.624 E12.9937
G1 X158.161 Y11.181 E13.0086
G1 X158.617 Y11.755 E13.02323
G1 X158.869 Y12.093 E13.03164
G1 X159.516 Y13.07 E13.05503
G1 X159.891 Y13.753 E13.07058
G1 X160.424 Y14.955 E13.09682
G1 X160.724 Y15.831 E13.1153
G1 X160.962 Y16.687 E13.13303
G1 X161.054 Y17.12 E13.14186
